X:1
T: Pet of the Pipers
C: 
R:Jig
Q:180
K:A
M:6/8
L:1/16
|:E2|A6 c2B2A2|e2c2A2 a2e2c2|A6 c2B2A2|G2F2E2 c2d2B2|
A6 c2B2A2|e2c2A2 a2e2c2|f2g2a2 e2c2A2|d2B2G2 A4E2:|
|:a2g2a2 f2g2a2|f2b2a2 g2f2e2|a2g2a2 f2g2a2|b2a2g2 a4e2|
a2g2f2 e2d2c2|f2e2d2 c2B2A2|f2g2a2 e2c2A2|1d2B2G2 A4e2:|2d2B2G2 A4||
